X:1
T:Crux Fidelis
T:Crux Fidelis 
T:João IV av Portugal? (1604-1656)
C:João IV av Portugal (1604-1656)?
%%score [ 1 2 3 4 ]
L:1/8
Q:1/4=80
M:4/4
K:G
V:1 treble nm="Soprano"
V:2 treble nm="Alto"
V:3 treble-8 nm="Tenor"
V:4 bass nm="Bass"
V:1
 G4 G4 | G6 FE | F8 | z2 E4 c2 | G4 G4 | G8 | ^G6 G2 | A2 A2 A4 | G2 G2 F4 | z2 A4 A2 | G4 F4 | %11
w: Crux fi-|de- * *|lis|in- *|ter om-|nes,|ar- bor|u- na no-|* bi- lis,|nul- la|sil- va|
 z2 G4 G2 | A4 A4 | z2 A4 G2 | z2 =F4 E2 | G4 G4 | G8 | z2 G4 G2 | G4 A2 _B2 | A4 z4 | z2 G4 G2 | %21
w: ta- lem|pro- fert|fron- de,|flo- re,|ger- mi-|ne.|Dul- ce|li- * *|gnum,|dul- ces|
 G4 GA _B2 | A6 G=F | G8 | z2 =F4 F2 | G4 A2 _B2 | A2 G4 FE | F2 F2 G4- | G8 || E4 D4 | D8 |] %31
w: cla- * * *||vos,|dul- ce|pon- dus *|su- * * *|* sti- net.||A- *|men.|
V:2
 D6 E2 | D8 | D8 | z2 G4 =F2- | F2 E4 DC | D8 | E6 E2 | E2 =F2 E2 A2- | A2 A2 A4 | z2 F4 F2 | %10
w: Crux fi-|de-|lis|in- ter|* om- * *|nes,|ar- bor|u- na no- *|* bi- lis,|nul- la|
 D4 D4 | z2 D4 D2 | =F4 F4 | z2 =F4 C2 | z2 D4 G,2 | G2 =F4 ED | E2 DC D4 | z2 D4 D2 | E4 F2 G2- | %19
w: sil- va|ta- lem|pro- fert|fron- de,|flo- re|ger- * * *|* mi- * ne.|Dul- ce|li- * *|
 G2 F2 z4 | z2 E4 =F2- | F2 EDE=F G2- | G=F F4 ED | E8 | z2 A,4 A,2 | E4 =F2 G2 | A4 A,4 | %27
w: * gnum,|dul- ces|* cla- * * * *||vos,|dul- ce|pon- dus *|su- *|
 D2 D2 D4- | D8 || C4 A,4 | B,8 |] %31
w: * sti- net.||A- *|men.|
V:3
 B6 c2- | c2 B4 AG | A8 | z2 c2 _B2 A2 | G2 c4 BA | B8 | B6 B2 | ^c2 d4 cB | ^c2 c2 d4 | z2 d4 c2 | %10
w: Crux fi-|* de- * *|lis|in- * ter|om- * * *|nes,|ar- bor|u- na no- *|* bi- lis,|nul- la|
 B4 A4 | z2 B4 B2 | c4 c4 | z2 c2 d2 e2 | z2 A2 B2 c2 | z2 d2- dc c2- | c2 BA B4 | z2 B4 B2 | %18
w: sil- va|ta- lem|pro- fert|fron- * de,|flo- * re|ger- * * *|* mi- * ne.|Dul- ce|
 c6 _B2 | d4 z4 | z2 c4 d2- | d2 e=f e3 d | c8 | c8 | z2 c4 c2 | ^c4 d4 | e4 d4- | d2 c4 BA | B8 || %29
w: li- *|gnum,|dul- ces|* cla- * * *||vos,|dul- ce|pon- dus|su- *|* * sti- *|net.|
 G4 F4 | G8 |] %31
w: A- *|men.|
V:4
 G,4 G,4 | G,8 | D,8 | z2 C,4 C,2 | C,8 | G,8 | E,6 E,2 | A,2 A,2 A,,4- | A,,2 A,,2 D,4 | %9
w: Crux fi-|de-|lis|in- ter|om-|nes,|ar- bor|u- na no-|* bi- lis,|
 z2 D,4 D,2 | D,4 D,4 | z2 G,4 G,2 | =F,4 F,4 | z2 =F,4 E,2 | z2 D,4 C,2 | B,,4 C,4 | G,,8 | %17
w: nul- la|sil- va|ta- lem|pro- fert|fron- de,|flo- re|ger- mi-|ne.|
 z2 G,4 =F,2 | E,4 D,4- | D,4 z4 | z2 C,4 B,,A,, | B,,4 C,4 | =F,8 | C,8 | z2 =F,4 F,2 | E,4 D,4 | %26
w: Dul- ce|li- gnum,||dul- ces *|cla- *||vos,|dul- ce|pon- dus|
 ^C,4 D,4- | D,4 G,,4- | G,,8 || C,4 D,4 | G,,8 |] %31
w: su- sti-|* net.||A- *|men.|

